X:23019
T:Whitchurch Hornpipe
R:Hornpipe
C:Trad.
O:England, Shropshire
Z:Paul Hardy's Session Tunebook 2015 (see www.paulhardy.net). Creative Commons cc by-nc-sa licenced.
M:2/2
L:1/4
Q:1/2=100
K:Gmaj
"G"BB/2G/2 "Am"cc/2A/2|"G"BG G2|"D"Ae/2d/2 "C"c/2B/2A/2G/2|"D"FD DE/2F/2|
"G"GG/2B/2 "Am"AA/2c/2|"G"BB/2d/2 "C"cc/2e/2|"G"d/2g/2f/2e/2 "D"d/2c/2B/2A/2|"G"GG G2:|
|:"G"dd/2e/2 dd/2e/2|dB B2|"C"cc/2d/2 cc/2d/2|"Am"cA"D"A2|
"G"B/2A/2B/2c/2 d/2e/2d/2c/2|B/2A/2B/2c/2 d/2e/2d/2c/2|"G"B/2g/2f/2e/2 "D"d/2c/2B/2A/2|"G"GG G2:|
|:"G"D>E D>E|DB, B,D|DE/2D/2 "Am"C/2B,/2A,/2G,/2|"D"B,A, A,2|
"G"B/2A/2B/2c/2 d/2e/2d/2c/2|B/2A/2B/2c/2 d/2e/2d/2c/2|"C"B/2g/2f/2e/2 "D"d/2c/2B/2A/2|"G"GG G2:|

